svg/chili_mild_outline.svg

<svg xmlns="http://www.w3.org/2000/svg" viewBox="0 0 24 24"><path d="m10.25 7.5-1.52-.87c.53-.93 1.3-1.63 2.21-1.94-.14-.4-.5-.69-.94-.69V2c1.54 0 2.79 1.16 2.97 2.65.94.29 1.75 1.01 2.3 1.98l-1.52.87-1.75-1zM16 10v12s-8-2-8-11v-1c0-.73.4-1.37 1-1.72l1.25.72L12 8l1.75 1L15 8.28c.6.35 1 .99 1 1.72m-2 1.45-2-1.15-2 1.13c.17 4.01 2.23 6.26 4 7.44z"/></svg>

<svg xmlns="http://www.w3.org/2000/svg" id="mdi-chili-mild-outline" viewBox="0 0 24 24"><path d="M10.25 7.5L8.73 6.63C9.26 5.7 10.03 5 10.94 4.69C10.8 4.29 10.44 4 10 4V2C11.54 2 12.79 3.16 12.97 4.65C13.91 4.94 14.72 5.66 15.27 6.63L13.75 7.5L12 6.5L10.25 7.5M16 10V22C16 22 8 20 8 11V10C8 9.27 8.4 8.63 9 8.28L10.25 9L12 8L13.75 9L15 8.28C15.6 8.63 16 9.27 16 10M14 11.45L12 10.3L10 11.43C10.17 15.44 12.23 17.69 14 18.87V11.45Z" /></svg>
